!!!OTL: Der grausame Bruder Es schwang sich ein Kuechenjung ueber den Rhein,
!!!ARE: Europa, Mitteleuropa, Deutschland (), Sachsen, Kr. Wolmirstedt, Samswegen
!!!YOR: 3, S. 240
!!    1879 gedruckt in Magdeburg
!!!SCT: Q0068
!!!YEM: Copyright 1995, estate of Helmut Schaffrath.
**kern
*ICvox
*Ivox
*M6/8
*k[f#c#]
*D:
{8d
=1
8.f#
16f#
8f#
8f#
8a
8d
=2
8.f#
16e
8e
4e}
{8f#
=3
4f#
8f#
8.a
16g
8f#
=4
8e
8a
8a
4a}
{8f#
=5
8.g
16g
8g
8b
8a
8g
=6
4f#
8f#
4a}
{8f#
=7
4e
8e
8g
8f#
8e
=8
8e
8d
8d
4d}
{8f#
=9
8.g
16g
8g
8b
8a
8g
=10
4f#
8f#
4a}
{8f#
=11
4e
8e
8g
8f#
8e
=12
8e
8d
8d
4d}
==
!!!AGN: Ballade, Schwangerschaft, Moral, Mord
!!!ONB: ESAC (Essen Associative Code) Database: BALLADE
!!!AMT: compound duple
!!!AIN: vox
!!!EED: Helmut Schaffrath
!!!EEV: 1.0
*-
